F[BALLADE
CUT[Der schwatzhafte Junggeselle
    Khatrina Khatriina tu raine Mogd.]
CNR[Tiar woar ain Haairat zui gesokt.]
REG[Osteuropa, Ungarn]
SRC[6, S. 312
    ????]
KEY[Q1139T 08  G 3/4]
MEL[-5_  1_-7_-6_  -5__1_  2_.32-7  1__
    -5_  1_-7_-6_  -5__1_  2_.32-7  1__
    33  3_3_3_  3_2_5_  4__3_  2__
    1_  -7_2_2_  2_1_2_  3__2-7  1__ //] >>
FCT[Legenden - Lied, geistlich]
CMT[Melodievergleich zu Q0139 ff., anderes Lied.]
